assets/efishery/ikan-streamline-nila-fill.svg

<svg width="24" height="25" viewBox="0 0 24 25" fill="none" xmlns="http://www.w3.org/2000/svg">
<path d="M14.9073 14.3487C14.9344 14.5523 14.9787 14.7548 15.0377 14.9505C14.1339 14.9406 13.4122 14.519 12.9934 14.1035C13.2315 14.0249 13.5061 14.0068 13.8018 14.0373C14.2256 14.0811 14.6333 14.2203 14.9073 14.3487Z" fill="#1D1D1D"/>
<path fill-rule="evenodd" clip-rule="evenodd" d="M14.7489 5.27344C13.1002 5.27344 11.3622 5.81735 9.98896 6.47129C9.29721 6.8007 8.67673 7.16804 8.18682 7.52902C7.72591 7.86864 7.28751 8.2692 7.07809 8.68803C6.82058 9.20305 6.90329 9.70971 7.16695 10.0997C7.34066 10.3567 7.58104 10.5495 7.80501 10.6911C7.29023 11.0224 6.83874 11.3823 6.47584 11.7566C5.97356 11.6968 5.41131 11.482 4.8546 11.1695C4.20416 10.8043 3.63366 10.3465 3.28028 9.99311C3.01576 9.7286 2.59678 9.69945 2.29818 9.92477C1.81034 10.2929 1.48066 10.8464 1.27832 11.4364C1.07344 12.0337 0.980523 12.7196 1.00339 13.4228C1.0489 14.8221 1.55845 16.3926 2.71969 17.5538C2.86869 17.7028 3.0735 17.7822 3.284 17.7727C3.4945 17.7631 3.69127 17.6655 3.82617 17.5036L3.9164 17.3951C4.32496 16.9037 4.7369 16.4083 5.19999 16.0609C5.6761 15.7039 6.08553 15.5925 6.51279 15.735C6.54395 15.7453 6.57531 15.7536 6.60671 15.7597C6.66838 15.8147 6.73224 15.869 6.79818 15.9227C6.35846 16.3881 5.8503 17.0035 5.55373 17.7449C5.41893 18.0819 5.5448 18.4671 5.85259 18.6594C7.59748 19.75 9.13689 19.9322 10.3792 19.6267C11.4558 19.362 12.2469 18.7456 12.7106 18.1631C13.2879 18.2347 13.8801 18.2734 14.4786 18.2734C14.8599 18.2734 15.2352 18.2548 15.6028 18.2198L14.85 19.2234C14.7364 19.3749 14.7181 19.5777 14.8028 19.747C14.8875 19.9164 15.0606 20.0234 15.25 20.0234C18.3789 20.0234 19.7169 18.0164 20.1624 16.8544C20.2227 16.822 20.2823 16.7893 20.3409 16.7564C21.0932 16.3341 21.7268 15.8563 22.1834 15.3752C22.6073 14.9283 23 14.3509 23 13.734C23 13.4137 22.8933 13.1086 22.7592 12.8476C22.6215 12.5795 22.4308 12.3114 22.2062 12.0521C21.7567 11.5333 21.1287 11.0009 20.3764 10.5222C19.7165 10.1024 18.9455 9.71424 18.0925 9.41084C18.0704 9.25244 18.0656 9.08197 18.0593 8.85894C18.056 8.73987 18.0522 8.60555 18.0452 8.45036C18.0271 8.05148 17.9852 7.56034 17.8205 7.08864C17.6495 6.59917 17.3421 6.11905 16.801 5.77392C16.2721 5.43658 15.5907 5.27344 14.7489 5.27344ZM16.1776 8.91427L16.5582 8.86669L16.5562 8.79805C16.5533 8.698 16.5506 8.6031 16.5467 8.51839C16.5301 8.15165 16.4943 7.84071 16.4044 7.58324C16.3206 7.34354 16.1963 7.16741 15.9943 7.03858C15.7802 6.90196 15.4071 6.77344 14.7489 6.77344C13.3976 6.77344 11.8856 7.22953 10.6339 7.82558C10.0131 8.12118 9.47735 8.44133 9.07662 8.7366C8.71787 9.00095 8.52857 9.20104 8.45222 9.30714C8.49987 9.35214 8.58426 9.41587 8.71876 9.48849C8.89716 9.58482 9.09909 9.66256 9.26551 9.71752C9.31807 9.73488 9.36521 9.74935 9.40457 9.7609L9.68375 9.726C11.0929 9.15401 12.7563 8.77344 14.4786 8.77344C15.0615 8.77344 15.6297 8.82373 16.1776 8.91427ZM10.8668 17.8147C9.97285 17.586 9.1466 17.2836 8.42772 16.9352C8.30875 16.8776 8.1921 16.8184 8.07802 16.7577C7.78105 17.0602 7.4868 17.3803 7.25388 17.7287C8.41938 18.3109 9.3435 18.3367 10.021 18.1701C10.3464 18.0901 10.6292 17.9623 10.8668 17.8147ZM5.56859 14.2413C5.52441 14.0776 5.5 13.9083 5.5 13.734C5.5 13.5194 5.53717 13.3095 5.60276 13.1063C5.07343 12.9589 4.56818 12.7289 4.1203 12.4774C3.64417 12.2101 3.20396 11.9023 2.83168 11.601C2.78374 11.6958 2.73838 11.8029 2.69718 11.923C2.55908 12.3257 2.48482 12.8272 2.5026 13.3741C2.52998 14.2159 2.77221 15.1039 3.25997 15.8503C3.5632 15.5085 3.91366 15.1507 4.29998 14.8609C4.66259 14.589 5.08954 14.3527 5.56859 14.2413ZM16.7786 11.7589C16.9247 11.9933 16.8531 12.3017 16.6188 12.4478C16.0244 12.8183 15.8268 13.4367 15.8861 14.1042C15.9478 14.7997 16.2798 15.407 16.5623 15.633C16.778 15.8055 16.8129 16.1202 16.6404 16.3358C16.4679 16.5514 16.1533 16.5864 15.9376 16.4139C15.7685 16.2786 15.6119 16.1007 15.4738 15.8934C15.4139 15.9234 15.347 15.9418 15.2758 15.9454C13.5689 16.0334 12.2745 15.0161 11.8153 14.2078C11.6983 14.0018 11.7419 13.742 11.9197 13.5855C12.5158 13.0608 13.2732 12.9774 13.9045 13.0426C14.2765 13.081 14.6321 13.1731 14.9349 13.2808C15.0615 12.6424 15.4067 12.0249 16.0898 11.5991C16.3241 11.453 16.6325 11.5246 16.7786 11.7589ZM19.25 13.0234C19.25 13.2996 19.0261 13.5234 18.75 13.5234C18.4739 13.5234 18.25 13.2996 18.25 13.0234C18.25 12.7473 18.4739 12.5234 18.75 12.5234C19.0261 12.5234 19.25 12.7473 19.25 13.0234Z" fill="#1D1D1D"/>
</svg>

<svg viewBox="0 0 24 25" xmlns="http://www.w3.org/2000/svg">
  <path d="M14.907 14.349c.027.203.072.406.13.601a2.991 2.991 0 0 1-2.044-.846 1.95 1.95 0 0 1 .809-.067c.424.044.831.183 1.105.312z"/>
  <path fill-rule="evenodd" clip-rule="evenodd" d="M14.749 5.273c-1.649 0-3.387.544-4.76 1.198-.692.33-1.312.697-1.802 1.058-.461.34-.9.74-1.109 1.159a1.36 1.36 0 0 0 .089 1.412c.174.257.414.45.638.591a7.537 7.537 0 0 0-1.33 1.066c-.501-.06-1.064-.275-1.62-.588A7.613 7.613 0 0 1 3.28 9.993a.75.75 0 0 0-.982-.068c-.488.368-.817.921-1.02 1.511a5.623 5.623 0 0 0-.275 1.987c.046 1.4.555 2.97 1.717 4.13a.75.75 0 0 0 1.106-.05l.09-.108c.409-.491.82-.987 1.284-1.334.476-.357.886-.469 1.313-.326.03.01.062.019.094.025.061.055.125.109.191.163-.44.465-.948 1.08-1.244 1.822a.75.75 0 0 0 .299.914c1.744 1.091 3.284 1.273 4.526.968a4.32 4.32 0 0 0 2.332-1.464c.577.072 1.17.11 1.768.11.38 0 .756-.018 1.124-.053l-.753 1.003a.5.5 0 0 0 .4.8c3.129 0 4.467-2.007 4.912-3.169l.179-.098c.752-.422 1.386-.9 1.842-1.38.424-.448.817-1.025.817-1.642 0-.32-.107-.625-.24-.886a4.106 4.106 0 0 0-.554-.796c-.45-.519-1.077-1.051-1.83-1.53a11.39 11.39 0 0 0-2.284-1.111c-.022-.159-.026-.329-.033-.552a22.62 22.62 0 0 0-.014-.409c-.018-.399-.06-.89-.225-1.361a2.488 2.488 0 0 0-1.019-1.315c-.529-.337-1.21-.5-2.052-.5zm1.429 3.641.38-.047-.002-.069c-.003-.1-.005-.195-.01-.28-.016-.366-.052-.677-.142-.935a.992.992 0 0 0-.41-.544c-.214-.137-.587-.266-1.245-.266-1.351 0-2.863.457-4.115 1.053a9.75 9.75 0 0 0-1.557.91c-.36.265-.548.465-.625.571.048.045.132.109.267.181a3.496 3.496 0 0 0 .686.273l.279-.035a12.911 12.911 0 0 1 4.795-.953c.583 0 1.15.05 1.699.141zm-5.311 8.9a13.045 13.045 0 0 1-2.44-.879 10.3 10.3 0 0 1-.349-.177c-.297.302-.591.622-.824.97 1.165.583 2.09.609 2.767.442.325-.08.608-.208.846-.355zm-5.298-3.573a1.94 1.94 0 0 1 .034-1.135 6.794 6.794 0 0 1-1.483-.629 9.364 9.364 0 0 1-1.288-.876 2.54 2.54 0 0 0-.135.322 4.131 4.131 0 0 0-.194 1.451c.027.842.27 1.73.757 2.476a7.25 7.25 0 0 1 1.04-.99c.363-.271.79-.507 1.269-.619zm11.21-2.482a.5.5 0 0 1-.16.689c-.595.37-.792.989-.733 1.656.062.696.394 1.303.676 1.529a.5.5 0 1 1-.624.78 2.29 2.29 0 0 1-.464-.52.497.497 0 0 1-.198.052c-1.707.088-3.002-.929-3.46-1.737a.5.5 0 0 1 .104-.623c.596-.524 1.353-.608 1.985-.542.372.038.727.13 1.03.238a2.498 2.498 0 0 1 1.155-1.682.5.5 0 0 1 .689.16zm2.471 1.264a.5.5 0 1 1-1 0 .5.5 0 0 1 1 0z"/>
</svg>
